icons/svg/crypto/wan.svg

<svg fill="none" height="32" viewBox="0 0 32 32" width="32" xmlns="http://www.w3.org/2000/svg"><path d="m16 32c8.8366 0 16-7.1634 16-16 0-8.83656-7.1634-16-16-16-8.83656 0-16 7.16344-16 16 0 8.8366 7.16344 16 16 16z" fill="#fff"/><path d="m8.21384 11.1539 7.78626-4.49536 7.7861 4.49536 2.9069-1.18191-10.693-6.17368-10.69297 6.17368z" fill="#3fbced"/><path d="m23.786 11.905v7.738l-7.786-4.572-7.796 4.578v-7.747l-3.204-1.303v14.481l11-6.459 11 6.459v-14.481z" fill="#1269ab"/><path d="m21.9439 22.9097-5.9441 3.4318-5.9441-3.4318-2.45609 1.4421 8.40019 4.8499 8.4002-4.8499z" fill="#3fbced"/></svg>

<svg fill="none" height="32" width="32" xmlns="http://www.w3.org/2000/svg">
    <path d="M16 32c8.837 0 16-7.163 16-16S24.837 0 16 0 0 7.163 0 16s7.163 16 16 16Z"
        fill="#fff" />
    <path d="M8.214 11.154 16 6.659l7.786 4.495 2.907-1.182L16 3.798 5.307 9.972l2.907 1.182Z"
        fill="#3FBCED" />
    <path d="M23.786 11.905v7.738L16 15.071l-7.796 4.578v-7.747L5 10.599V25.08l11-6.459 11 6.459V10.599l-3.214 1.306Z"
        fill="#1269AB" />
    <path d="M21.944 22.91 16 26.34l-5.944-3.431L7.6 24.352l8.4 4.85 8.4-4.85-2.456-1.442Z"
        fill="#3FBCED" />
</svg>
